src/Icon/svgs/play-forward.svg

<svg xmlns="http://www.w3.org/2000/svg" width="24" height="24" viewBox="0 0 24 24">
  <path fill="#1B1C1D" fill-rule="evenodd" d="M18.5534769,4.44652311 L21,2 L21,8 L15,8 L17.1348489,5.86515106 C15.7453819,4.70093553 13.9545471,4 12,4 C7.581722,4 4,7.581722 4,12 C4,16.418278 7.581722,20 12,20 C14.9191428,20 17.4731117,18.4365051 18.8701798,16.1012424 L20.5804004,17.1387762 C18.8324727,20.0510859 15.643833,22 12,22 C6.4771525,22 2,17.5228475 2,12 C2,6.4771525 6.4771525,2 12,2 C14.5069282,2 16.7983984,2.92248556 18.5534769,4.44652311 Z M11.9594595,16 C10.2621622,16 9.10540541,14.9783784 9.05675676,13.5837838 L10.5648649,13.5837838 C10.6567568,14.2324324 11.2297297,14.6648649 11.9702703,14.6648649 C12.8081081,14.6648649 13.3864865,14.1027027 13.3864865,13.2540541 C13.3864865,12.3945946 12.8027027,11.8216216 11.9756757,11.8216216 C11.3702703,11.8216216 10.9108108,12.0864865 10.6405405,12.5243243 L9.18108108,12.5243243 L9.57027027,8 L14.472973,8 L14.472973,9.35675676 L10.8351351,9.35675676 L10.6621622,11.3621622 L10.7594595,11.3621622 C11.0891892,10.8864865 11.6405405,10.6 12.4135135,10.6 C13.8945946,10.6 14.9432432,11.6864865 14.9432432,13.2162162 C14.9432432,14.8702703 13.7486486,16 11.9594595,16 Z"/>
</svg>

<svg xmlns="http://www.w3.org/2000/svg" width="24" height="24"  xmlns:v="https://vecta.io/nano"><path fill="#1b1c1d" fill-rule="evenodd" d="M18.553 4.447L21 2v6h-6l2.135-2.135A7.97 7.97 0 0 0 12 4a8 8 0 1 0 0 16c2.919 0 5.473-1.563 6.87-3.899l1.71 1.038C18.832 20.051 15.644 22 12 22a10 10 0 1 1 0-20 9.96 9.96 0 0 1 6.553 2.447zM11.959 16c-1.697 0-2.854-1.022-2.903-2.416h1.508c.092.649.665 1.081 1.405 1.081.838 0 1.416-.562 1.416-1.411 0-.859-.584-1.432-1.411-1.432-.605 0-1.065.265-1.335.703H9.181L9.57 8h4.903v1.357h-3.638l-.173 2.005h.097c.33-.476.881-.762 1.654-.762 1.481 0 2.53 1.086 2.53 2.616 0 1.654-1.195 2.784-2.984 2.784z"/></svg>
